!!!!SEGMENT: artfugue-016b.krn
!!!COM: Bach, Johann Sebastian
!!!CDT: 1685/03/31-1750/07/28
!!!OPR@@DE: Die Kunst der Fuge
!!!OPR@EN: The Art of the Fugue
!!!OTL: Contrapunctus 16 (XIII), a 3. (inversus)
!!!ONB: #13 in 1878 edition (SMS1)
!!!ONB: #16 in 1926 edition (SMS2)
!!!ONB: Nach dem Berliner Autograph Nr. 12.
!!!SCA: BWV 1080
!!!voices: 3
!!!AGN: Mirror fugue
**kern	**kern	**kern
*part1	*part1	*part1
*staff3	*staff2	*staff1
*I"	*I"	*I"
*clefF4	*clefC1	*clefG2
*mclefF4	*mclefGv2	*mclefG2
*k[b-]	*k[b-]	*k[b-]
*d:	*d:	*d:
*M2/2	*M2/2	*M2/2
*met(c|)	*met(c|)	*met(c|)
*mmet(c|)	*mmet(c|)	*mmet(c|)
*MM132	*MM132	*MM132
*Xbrackettup	*Xbrackettup	*Xbrackettup
4r	4r	4dd
=73	=73	=73
1r	1r	4a
.	.	[4aa
!	!	!LO:TUP:a
.	.	12aaL]
.	.	12gg
.	.	12ffJ
!	!	!LO:TUP:a
.	.	12ggL
.	.	12ff
.	.	12eeJ
=74	=74	=74
!	!	!LO:TUP:a
1r	1r	12ffL
.	.	12ee
.	.	12ddJ
.	.	[4ee
!	!	!LO:TUP:a
.	.	12eeL]
.	.	12dd
.	.	12cc#XJ
!	!	!LO:TUP:a
.	.	12ddL
.	.	12cc#
.	.	12bXJ
=75	=75	=75
!	!	!LO:TUP:a
1r	1r	12cc#XL
.	.	12dd
.	.	12eeJ
.	.	[4dd
!	!	!LO:TUP:a
.	.	12ddL]
.	.	12ee
.	.	12ffJ
!	!	!LO:TUP:a
.	.	12eeL
.	.	12ff
.	.	12ggJ
!!LO:LB:g=original
=76	=76	=76
*	*	*Xtuplet
!	!	!LO:N:vis=8.
1r	2r	6ffL
!	!	!LO:N:vis=16
.	.	12dd
!	!	!LO:N:vis=8.
.	.	6a
!	!	!LO:N:vis=16
.	.	12ddJ
!	!	!LO:N:vis=8.
.	4r	6ffL
!	!	!LO:N:vis=16
.	.	12gg
!	!	!LO:N:vis=8.
.	4a	6ff
!	!	!LO:N:vis=16
.	.	12eeJ
=77	=77	=77
*	*	*tuplet
!	!	!LO:TUP:a
1r	4dd	12ddL
.	.	12gg
.	.	12eeJ
!	!	!LO:TUP:a
.	[4d	12ffL
.	.	12gg
.	.	12aaJ
.	12dL]	4bb-
.	12e	.
.	12fJ	.
.	12eL	4cc#X
.	12f	.
.	12gJ	.
=78	=78	=78
!	!LO:TUP:a	!
1r	12fL	[4dd
.	12g	.
.	12aJ	.
!	!	!LO:TUP:a
.	[4g	12ddL]
.	.	12ee
.	.	12ffJ
!	!LO:TUP:a	!
.	12gL]	[2ee
.	12a	.
.	12b-J	.
!	!LO:TUP:a	!
.	12aL	.
.	12b-	.
.	12ccJ	.
=79	=79	=79
!	!LO:TUP:a	!
1r	12b-L	4ee_
.	12a	.
.	12gJ	.
!	!	!LO:TUP:a
.	[4a	12eeL]
.	.	12ff
.	.	12ggJ
*	*	*Xtuplet
!	!LO:TUP:a	!LO:N:vis=8.
.	12aL]	6ffL
.	12g	.
!	!	!LO:N:vis=16
.	12fJ	12a
!	!	!LO:N:vis=8.
.	12gL	6bX
.	12f	.
!	!	!LO:N:vis=16
.	12eJ	12cc#XJ
!!LO:LB:g=original
=80	=80	=80
*	*Xtuplet	*
!	!LO:N:vis=8.	!
2r	6fL	[2dd
!	!LO:N:vis=16	!
.	12a	.
!	!LO:N:vis=8.	!
.	6dd	.
!	!LO:N:vis=16	!
.	12aJ	.
!	!LO:N:vis=8.	!LO:N:vis=8.
4r	6fL	6dd]L
!	!LO:N:vis=16	!
.	12e	12cc#X
!	!LO:N:vis=8.	!LO:N:vis=8.
4A	6f	6dd
!	!LO:N:vis=16	!
.	12gJ	12eeJ
=81	=81	=81
*	*tuplet	*
!	!LO:TUP:a	!
4D	12aL	4ff
.	12b-	.
.	12ccJ	.
!	!LO:TUP:a	!
[4d	12b-L	4r
.	12a	.
.	12gJ	.
!LO:TUP:a	!	!
12dL]	4f#X	4r
12c	.	.
12B-J	.	.
!LO:TUP:a	!	!
12cL	4ee-	4ff#X
12B-	.	.
12AJ	.	.
=82	=82	=82
*	*	*tuplet
!LO:TUP:a	!	!LO:TUP:a
12B-L	4dd	12ggL
12A	.	12ff#X
12GJ	.	12eeJ
!	!	!LO:TUP:a
[4A	4r	12ff#L
.	.	12gg
.	.	12eeJ
!LO:TUP:a	!	!LO:TUP:a
12AL]	4r	12ff#L
12G	.	12gg
12F#XJ	.	12aaJ
!LO:TUP:a	!	!LO:TUP:a
12GL	[4d	12bb-L
12F#	.	12aa
12DJ	.	12ggJ
=83	=83	=83
!LO:TUP:a	!	!
12F#XL	4d]	4aa
12G	.	.
12AJ	.	.
[4G	12e-L	4r
.	12d	.
.	12fJ	.
!LO:TUP:a	!	!
12GL]	2e-	4r
12A	.	.
12B-J	.	.
!LO:TUP:a	!	!
12AL	.	4ff#X
12B-	.	.
12cJ	.	.
!!LO:LB:g=original
=84	=84	=84
*Xtuplet	*	*
!LO:N:vis=8.	!	!
6B-L	[1d	4gg
!LO:N:vis=16	!	!
12G	.	.
!LO:N:vis=8.	!	!
6D	.	4bb-
!LO:N:vis=16	!	!
12GJ	.	.
!LO:N:vis=8.	!	!
6B-L	.	4gg
!LO:N:vis=16	!	!
12c	.	.
*	*	*Xtuplet
!LO:N:vis=8.	!	!LO:N:vis=8.
6B-	.	6ddL
!LO:N:vis=16	!	!LO:N:vis=16
12AJ	.	12ccJ
=85	=85	=85
*	*Xtuplet	*
!	!LO:N:vis=8.	!
2G	6d]L	4b-
!	!LO:N:vis=16	!
.	12g	.
!	!LO:N:vis=8.	!
.	6b-	4dd
!	!LO:N:vis=16	!
.	12gJ	.
!	!LO:N:vis=8.	!
4r	6dL	4b-
!	!LO:N:vis=16	!
.	12c	.
!	!LO:N:vis=8.	!
4B-	6d	4g
!	!LO:N:vis=16	!
.	12eJ	.
=86	=86	=86
!	!LO:N:vis=8.	!
4A	6fL	4a
!	!LO:N:vis=16	!
.	12c	.
!LO:N:vis=8.	!LO:N:vis=8.	!
6FL	6A	4aa
!LO:N:vis=16	!LO:N:vis=16	!
12GJ	12cJ	.
!	!LO:N:vis=8.	!
4A	6fL>	2r
!	!LO:N:vis=16	!
.	12a	.
!	!LO:N:vis=8.	!
4BBX	6g	.
!	!LO:N:vis=16	!
.	12fJ	.
=87	=87	=87
!	!LO:N:vis=8.	!
4C	6eL	4r
!	!LO:N:vis=16	!
.	12a	.
!	!LO:N:vis=8.	!
4A	6cc	4ee
!	!LO:N:vis=16	!
.	12b-J	.
!	!LO:N:vis=8.	!
4r	6eL	4cc
!	!LO:N:vis=16	!
.	12d	.
!	!LO:N:vis=8.	!
4c	6e	4a
!	!LO:N:vis=16	!
.	12f#XJ	.
!!LO:LB:g=original
=88	=88	=88
!	!LO:N:vis=8.	!
4B-	6gL	4b-
!	!LO:N:vis=16	!
.	12d	.
!LO:N:vis=8.	!LO:N:vis=8.	!
6GL	6B-	4bb-
!LO:N:vis=16	!LO:N:vis=16	!
12AJ	12dJ	.
!	!LO:N:vis=8.	!
4B-	6gL	2r
!	!LO:N:vis=16	!
.	12b-	.
!	!LO:N:vis=8.	!
4C#X	6a	.
!	!LO:N:vis=16	!
.	12gJ	.
=89	=89	=89
!LO:N:vis=4.	!LO:N:vis=8.	!
3D	6fL	1r
!	!LO:N:vis=16	!
.	12e	.
!	!LO:N:vis=8.	!
.	6f	.
!LO:N:vis=8	!	!
6E	.	.
!	!LO:N:vis=16	!
.	12gJ	.
!LO:N:vis=8.	!LO:N:vis=8.	!
6FL	6aL	.
!LO:N:vis=16	!LO:N:vis=16	!
12G	12g	.
!LO:N:vis=8.	!LO:N:vis=8.	!
6A	6f	.
!LO:N:vis=16	!LO:N:vis=16	!
12FJ	12aJ	.
=90	=90	=90
!	!LO:N:vis=8.	!
4c	6eL	1r
!	!LO:N:vis=16	!
.	12d	.
!	!LO:N:vis=8.	!
4C	6e	.
!	!LO:N:vis=16	!
.	12fJ	.
!	!LO:N:vis=8.	!
4E	6gL	.
!	!LO:N:vis=16	!
.	12f	.
!	!LO:N:vis=8.	!
4G	6e	.
!	!LO:N:vis=16	!
.	12gJ	.
=91	=91	=91
!LO:N:vis=4.	!LO:N:vis=8.	!
3B-	6dL	2r
!	!LO:N:vis=16	!
.	12c#X	.
!	!LO:N:vis=8.	!
.	6d	.
!LO:N:vis=16	!	!
12AL	.	.
!LO:N:vis=16	!LO:N:vis=16	!
12GJ	12eJ	.
!LO:N:vis=8.	!LO:N:vis=8.	!
6dL	6fL>	4r
!LO:N:vis=16	!LO:N:vis=16	!
12G	12g	.
!LO:N:vis=8.	!LO:N:vis=8.	!
6F	6a	4aa
!LO:N:vis=16	!LO:N:vis=16	!
12EJ	12gJ	.
!!LO:LB:g=original
=92	=92	=92
!LO:N:vis=4.	!LO:N:vis=8.	!
3D	6fL	4ddd
!	!LO:N:vis=16	!
.	12g	.
!	!LO:N:vis=8.	!
.	6f	[4dd
!LO:N:vis=8	!	!
6E	.	.
!	!LO:N:vis=16	!
.	12eJ	.
*tuplet	*	*tuplet
!LO:TUP:a	!	!LO:TUP:a
12FL	4d	12ddL]
12G	.	12ee
12AJ	.	12ffJ
*Xtuplet	*	*
!LO:N:vis=8.	!	!LO:TUP:a
6GL	4b-	12eeL
.	.	12ff
!LO:N:vis=16	!	!
12C#XJ	.	12ggJ
=93	=93	=93
*tuplet	*	*
!LO:TUP:a	!	!LO:TUP:a
12DL	4a	12ffL
12E	.	12gg
12FJ	.	12aaJ
!LO:TUP:a	!	!
12EL	4c#X	[4gg
12B-	.	.
12GJ	.	.
!LO:TUP:a	!	!LO:TUP:a
12EL	4r	12ggL]
12F#X	.	12aa
[12GJ	.	12bb-J
*Xtuplet	*	*
!LO:N:vis=8.	!	!LO:TUP:a
6G]L	4e-	12aaL
.	.	12bb-
!LO:N:vis=16	!	!
12F#J	.	12cccJ
=94	=94	=94
*tuplet	*	*
!LO:TUP:a	!	!LO:TUP:a
12GL	4d	12bb-L
12Fn	.	12aa
12EJ	.	12ggJ
!LO:TUP:a	!	!
12FL	4r	[4aa
12A	.	.
12dJ	.	.
!LO:TUP:a	!	!LO:TUP:a
12cL	4r	12aaL]
12B-	.	12gg
12AJ	.	12ffJ
!LO:TUP:a	!	!LO:TUP:a
12B-L	4d	12ggL
12A	.	12ff
12GJ	.	12eeJ
=95	=95	=95
*	*	*Xtuplet
!	!	!LO:N:vis=8.
4A	4a	6ffL
!	!	!LO:N:vis=16
.	.	12aa
!	!	!LO:N:vis=8.
4F	4r	6ddd
!	!	!LO:N:vis=16
.	.	12aaJ
!	!	!LO:N:vis=8.
4A	4r	6ffL
!	!	!LO:N:vis=16
.	.	12ee
!	!	!LO:N:vis=8.
4d	4a	6ff#X
!	!	!LO:N:vis=16
.	.	12gg#J
!!LO:LB:g=original
=96	=96	=96
*Xtuplet	*	*
!LO:N:vis=8.	!	!
6cL	4e	4aa
!LO:N:vis=16	!	!
12A	.	.
!LO:N:vis=8.	!	!LO:N:vis=8.
6E	4r	6ggnL
!LO:N:vis=16	!	!LO:N:vis=16
12GJ	.	12ffnJ
!LO:N:vis=8.	!	!
6cL	4r	4ee
!LO:N:vis=16	!	!
12e	.	.
!LO:N:vis=8.	!	!
6d	4b-	4ff#X
!LO:N:vis=16	!	!
12cJ	.	.
=97	=97	=97
!	!	!LO:N:vis=8.
4BX	4bX	6ggL
!	!	!LO:N:vis=16
.	.	12bbX
!	!	!LO:N:vis=8.
4G	4r	6eee
!	!	!LO:N:vis=16
.	.	12bbJ
!	!	!LO:N:vis=8.
4B	4r	6ggL
!	!	!LO:N:vis=16
.	.	12ff#X
!	!	!LO:N:vis=8.
4e	4b	6gg
!	!	!LO:N:vis=16
.	.	12aaJ
=98	=98	=98
!LO:N:vis=8.	!	!
6dL	4f#X	4bbX
!LO:N:vis=16	!	!
12BX	.	.
!LO:N:vis=8.	!	!LO:N:vis=8.
6F#X	4r	6aaL
!LO:N:vis=16	!	!LO:N:vis=16
12BJ	.	12ggJ
!LO:N:vis=8.	!	!
6dL	4r	4ff#X
!LO:N:vis=16	!	!
12fn	.	.
!LO:N:vis=8.	!	!
6e	4bX	4gg#
!LO:N:vis=16	!	!
12dJ	.	.
=99	=99	=99
!	!	!LO:N:vis=8.
4c	4e	6aaL
!	!	!LO:N:vis=16
.	.	12bbX
!	!	!LO:N:vis=8.
[>4C	4r	6ccc
!	!	!LO:N:vis=16
.	.	12bb-J
*tuplet	*	*
!LO:TUP:a	!	!LO:N:vis=8.
12CL]	2r	6aaL
12D	.	.
!	!	!LO:N:vis=16
12EJ	.	12gg
!LO:TUP:a	!	!LO:N:vis=8.
12DL	.	6ff
12E	.	.
!	!	!LO:N:vis=16
12FJ	.	12aaJ
!!LO:LB:g=original
=100	=100	=100
*	*	*tuplet
!LO:TUP:a	!	!
12EL	2r	[4gg
12F	.	.
12GJ	.	.
!	!	!LO:TUP:a
[4F	.	12ggL]
.	.	12aa
.	.	12bb-J
!LO:TUP:a	!	!LO:TUP:a
12FL]	4r	12aaL
12G	.	12bb-
12AJ	.	12cccJ
!LO:TUP:a	!	!LO:TUP:a
12GL	4f	12bb-L
12A	.	12ccc
12B-J	.	12dddJ
=101	=101	=101
!	!	!LO:TUP:a
4A	4c	12cccL
.	.	12cc
.	.	12b-J
!	!	!LO:TUP:a
4F	[4cc	12aL
.	.	12b-
.	.	12ccJ
*	*tuplet	*
!	!LO:TUP:a	!
4A	12ccL]	[2ff
.	12b-	.
.	12aJ	.
!	!LO:TUP:a	!
4d	12b-L	.
.	12a	.
.	12gJ	.
=102	=102	=102
!	!LO:TUP:a	!LO:TUP:a
[1c	12aL	12ffL]
.	12g	12ee
.	12fJ	12ddJ
!	!	!LO:TUP:a
.	[4g	12eeL
.	.	12ff
.	.	12ddJ
!	!LO:TUP:a	!
.	12gL]	4ee
.	12f	.
.	12eJ	.
!	!LO:TUP:a	!
.	12fL	4aa
.	12e	.
.	12dJ	.
=103	=103	=103
!	!	!LO:TUP:a
1c_	12eL	12ggL
.	12f	12aa
.	12gJ	12bb-J
!	!	!LO:TUP:a
.	[4f	12aaL
.	.	12gg
.	.	12bb-J
!	!LO:TUP:a	!
.	12fL]	4aa
.	12g	.
.	12aJ	.
!	!LO:TUP:a	!
.	12gL	4ee
.	12a	.
.	12b-J	.
!!LO:LB:g=original
=104	=104	=104
*	*Xtuplet	*
!	!LO:N:vis=8.	!
!	!	!LO:TUP:a
2c]	6aL	12ffL
.	.	12ccc
!	!LO:N:vis=16	!
.	12f	12aaJ
!	!LO:N:vis=8.	!LO:TUP:a
.	6c	12ffL
.	.	12aa
!	!LO:N:vis=16	!
.	12fJ	12ffJ
*	*	*Xtuplet
!	!LO:N:vis=8.	!LO:N:vis=8.
4r	6aL	6ccL
!	!LO:N:vis=16	!
.	12b-	12gg
!	!LO:N:vis=8.	!LO:N:vis=8.
4c	6a	6ff
!	!LO:N:vis=16	!LO:N:vis=16
.	12gJ	12ee-J
=105	=105	=105
*	*	*tuplet
!	!	!LO:TUP:a
4f	4f	12ddL
.	.	12cc
.	.	12b-J
!	!	!LO:TUP:a
[4F	4a	12ccL
.	.	12b-
.	.	12aJ
!LO:TUP:a	!LO:N:vis=8.	!
12FL]	6ddL	[2ff
12G	.	.
!	!LO:N:vis=16	!
12AJ	12cc	.
!LO:TUP:a	!LO:N:vis=8.	!
12GL	6b-	.
12A	.	.
!	!LO:N:vis=16	!
12B-J	12ddJ	.
=106	=106	=106
!LO:TUP:a	!	!
12AL	[4cc	1ff_
12B-	.	.
12cJ	.	.
*	*tuplet	*
!	!LO:TUP:a	!
[4B-	12ccL]	.
.	12dd	.
.	12ee-J	.
!LO:TUP:a	!LO:TUP:a	!
12B-L]	12ddL	.
12c	12cc	.
12dJ	12b-J	.
!LO:TUP:a	!LO:TUP:a	!
12cL	12aL	.
12d	12b-	.
12e-J	12ccJ	.
=107	=107	=107
!LO:TUP:a	!LO:TUP:a	!
12dL	12b-L	1ff_
12c	12a	.
12B-J	12gJ	.
!	!LO:TUP:a	!
[4c	12aL	.
.	12g	.
.	12b-J	.
!LO:TUP:a	!LO:TUP:a	!
12cL]	12aL	.
12B-	12b-	.
12AJ	12ccJ	.
!LO:TUP:a	!LO:TUP:a	!
12B-L	12ddL	.
12A	12cc	.
12GJ	12b-J	.
!!LO:LB:g=original
=108	=108	=108
*Xtuplet	*	*
!LO:N:vis=8.	!	!
6AL	4cc	2ff]
!LO:N:vis=16	!	!
12c	.	.
!LO:N:vis=8.	!	!
6f	4a	.
!LO:N:vis=16	!	!
12cJ	.	.
!LO:N:vis=8.	!	!
6AL	4f	4r
!LO:N:vis=16	!	!
12G	.	.
!LO:N:vis=8.	!	!
6A	4cc	4aa
!LO:N:vis=16	!	!
12BXJ	.	.
=109	=109	=109
*tuplet	*	*
!LO:TUP:a	!	!
12cL	4g	4ee
12e	.	.
12dJ	.	.
!LO:TUP:a	!	!
12cL	4r	[4eee
12BX	.	.
12AJ	.	.
*Xtuplet	*	*
!LO:N:vis=8.	!	!LO:TUP:a
6G#L	4bX	12eeeL]
.	.	12ddd
!LO:N:vis=16	!	!
12AX	.	12cccJ
!LO:N:vis=8.	!	!LO:TUP:a
6B	4r	12dddL
.	.	12ccc
!LO:N:vis=16	!	!
12G#J	.	12bbXJ
=110	=110	=110
*tuplet	*	*
!LO:TUP:a	!	!LO:TUP:a
12AL	[1e	12cccL
12G#	.	12bbX
12F#XJ	.	12aaJ
!LO:TUP:a	!	!
12G#L	.	[4bbn
12E	.	.
12G#J	.	.
!LO:TUP:a	!	!LO:TUP:a
12BXL	.	12bbL]
12c	.	12aa
12dJ	.	12gg#J
!LO:TUP:a	!	!LO:TUP:a
12cL	.	12aaXL
12B	.	12gg#
12AXJ	.	12ff#XJ
=111	=111	=111
!LO:TUP:a	!	!LO:TUP:a
12BXL	1e_	12gg#L
12c	.	12aaX
12dJ	.	12bbXJ
!LO:TUP:a	!	!
12cL	.	[4aa
12e	.	.
12dJ	.	.
!LO:TUP:a	!	!LO:TUP:a
12cL	.	12aaL]
12B	.	12bb
12AJ	.	12cccJ
!LO:TUP:a	!	!LO:TUP:a
12G#L	.	12bbL
12AX	.	12ccc
12BJ	.	12dddJ
!!LO:LB:g=original
=112	=112	=112
*	*	*Xtuplet
!LO:TUP:a	!	!LO:N:vis=8.
12AL	1e_	6cccL
12e	.	.
!	!	!LO:N:vis=16
12cJ	.	12aa
!LO:TUP:a	!	!LO:N:vis=8.
12AL	.	6ee
12c	.	.
!	!	!LO:N:vis=16
12AJ	.	12aaJ
*Xtuplet	*	*
!LO:N:vis=8.	!	!LO:N:vis=8.
6EL	.	6cccL
!LO:N:vis=16	!	!LO:N:vis=16
12F	.	12ddd
!LO:N:vis=8.	!	!LO:N:vis=8.
6E	.	6ccc
!LO:N:vis=16	!	!LO:N:vis=16
12DJ	.	12bbXJ
=113	=113	=113
!LO:N:vis=8.	!	!
6CL	2e]	4aa
!LO:N:vis=16	!	!
12E	.	.
!LO:N:vis=8.	!	!
6A	.	4ccc
!LO:N:vis=16	!	!
12EJ	.	.
!LO:N:vis=8.	!	!
6CL	4r	4aa
!LO:N:vis=16	!	!
12BBX	.	.
!LO:N:vis=8.	!	!LO:N:vis=8.
6C	4e	6eeL
!	!	!LO:N:vis=16
12DJ	.	12ffJ
=114	=114	=114
!	!	!LO:N:vis=8.
4E	2BX	6ggL
!	!	!LO:N:vis=16
.	.	12ee
!	!	!LO:N:vis=8.
4G	.	6bX
!	!	!LO:N:vis=16
.	.	12eeJ
!	!	!LO:N:vis=8.
4E	4r	6ggL
!	!	!LO:N:vis=16
.	.	12bb-X
!	!	!LO:N:vis=8.
4C#X	4e	6aa
!	!	!LO:N:vis=16
.	.	12ggJ
=115	=115	=115
!LO:N:vis=8.	!	!
6DL	2f	4ff
!LO:N:vis=16	!	!
12F	.	.
!LO:N:vis=8.	!	!
6B-	.	4ddd
!LO:N:vis=16	!	!
12FJ	.	.
!LO:N:vis=8.	!	!
6DL	4r	4bb-
!LO:N:vis=16	!	!
12C	.	.
!LO:N:vis=8.	!	!LO:N:vis=8.
6D	4f	6ffL
!LO:N:vis=16	!	!LO:N:vis=16
12EJ	.	12ggJ
!!LO:LB:g=original
=116	=116	=116
!	!	!LO:N:vis=8.
4F	2c	6aaL
!	!	!LO:N:vis=16
.	.	12ff
!	!	!LO:N:vis=8.
4A	.	6cc
!	!	!LO:N:vis=16
.	.	12ffJ
!	!	!LO:N:vis=8.
4F	4r	6aaL
!	!	!LO:N:vis=16
.	.	12gg
!	!	!LO:N:vis=8.
4D	4f	6bb-
!	!	!LO:N:vis=16
.	.	12aaJ
=117	=117	=117
*	*Xtuplet	*
!	!LO:N:vis=8.	!
4E	6gL	2gg
!	!LO:N:vis=16	!
.	12e	.
!	!LO:N:vis=8.	!
4A	6c#X	.
!	!LO:N:vis=16	!
.	12eJ	.
!	!LO:N:vis=8.	!
4B-	6gL	4r
!	!LO:N:vis=16	!
.	12f	.
!	!LO:N:vis=8.	!
4r	6g	4cc#X
!	!LO:N:vis=16	!
.	12aJ	.
=118	=118	=118
8r	8b-L	4dd
16B-LL	8g	.
16AJJ	.	.
16GLL	8e	4r
16F	.	.
16E	8gJ	.
16DJJ	.	.
!	!LO:N:vis=8.	!LO:N:vis=8
4C#X	6b-L	12.r
!	!	!LO:N:vis=16
.	.	24r
*	*	*tuplet
!	!LO:N:vis=16	!LO:N:vis=16
.	12a	12f
!	!LO:N:vis=8.	!
4r	6bX	12gL
!	!LO:N:vis=16	!
.	.	12f
.	12cc#XJ	12eJ
=119	=119	=119
*tuplet	*	*
!LO:TUP:a	!LO:N:vis=8.	!
12r	6ddL	4b-
12GL	.	.
!	!LO:N:vis=16	!
12DJ	12b-X	.
!LO:TUP:a	!LO:N:vis=8.	!
12EL	6g	4r
12F	.	.
!	!LO:N:vis=16	!
12GJ	12aJ	.
!LO:TUP:a	!LO:N:vis=8.	!
12FL	6ddL	4r
12G	.	.
!	!LO:N:vis=16	!
12AJ	12cc#X	.
!LO:TUP:a	!LO:N:vis=8.	!
12B-L	6dd	4gg
12A	.	.
!	!LO:N:vis=16	!
12GJ	12ddJ	.
!!LO:LB:g=original
=120	=120	=120
*	*tuplet	*
!	!LO:TUP:a	!
4F	12ffL	4ddd
.	12dd	.
.	12b-J	.
!	!LO:TUP:a	!
4r	12fL	[4dd
.	12g	.
.	12aJ	.
!	!	!LO:TUP:a
4r	2b-	12ddL]
.	.	12ee
.	.	12ffJ
!!LO:MO:ori
*clefC4	*	*
!!LO:MO:end
!	!	!LO:TUP:a
4c#X	.	12eeL
.	.	12ff
.	.	12ggJ
=121	=121	=121
!LO:TUP:a	!	!LO:TUP:a
12dL	4a	12ffL
12e	.	12gg
12fJ	.	12aaJ
!LO:TUP:a	!	!
12eL	4c#X	[4gg
12d	.	.
12fJ	.	.
*Xtuplet	*	*
!LO:N:vis=16	!	!LO:TUP:a
12eLL	4r	12ggL]
!LO:N:vis=16	!	!
12f#XJJ	.	12aa
!LO:N:vis=4	!	!
6.g	.	12bb-J
!	!	!LO:TUP:a
.	4e-	12aaL
.	.	12bb-
.	.	.
12f#	.	12cccJ
=122	=122	=122
*	*Xtuplet	*
!	!LO:N:vis=8.	!LO:TUP:a
4g	6dL	12bb-L
.	.	12aa
!	!LO:N:vis=16	!
.	12enJ	12ggJ
*	*tuplet	*
4r	12fL	[4aa
.	12e	.
.	12dJ	.
!!LO:MO:ori
*clefF4	*	*
!!LO:MO:end
*	*Xtuplet	*
!	!LO:N:vis=8.	!LO:TUP:a
4r	6c#XL	12aaL]
.	.	12gg
!	!LO:N:vis=16	!
.	12aJ	12ffJ
*	*tuplet	*
!	!LO:TUP:a	!LO:TUP:a
4G	12b-L	12ggL
.	12a	12ff
.	12gJ	12eeJ
=123	=123	=123
*	*	*Xtuplet
!	!	!LO:N:vis=8.
4d	4a	6ffL
!	!	!LO:N:vis=16
.	.	12aa
!	!	!LO:N:vis=8.
4r	4f	6ddd
!	!	!LO:N:vis=16
.	.	12aaJ
!	!	!LO:N:vis=8.
4r	4d	6ffL
!	!	!LO:N:vis=16
.	.	12ee
!	!	!LO:N:vis=8.
4d	4a	6ff#X
!	!	!LO:N:vis=16
.	.	12gg#J
!!LO:LB:g=original
=124	=124	=124
*Xtuplet	*	*
!LO:N:vis=8.	!	!
6cL	4e	4aa
!LO:N:vis=16	!	!
12A	.	.
!LO:N:vis=8.	!	!
6E	4r	4cc
!LO:N:vis=16	!	!
12AJ	.	.
!LO:N:vis=8.	!	!
6cL	4r	4ee
!LO:N:vis=16	!	!
12e	.	.
!LO:N:vis=8.	!	!
6d	4e	4aa
!LO:N:vis=16	!	!
12cJ	.	.
=125	=125	=125
!	!	!LO:N:vis=8.
4g	4ee	6eeL
!	!	!LO:N:vis=16
.	.	12gg
!	!	!LO:N:vis=8.
4r	4e	6ccc
!	!	!LO:N:vis=16
.	.	12ggJ
!	!	!LO:N:vis=8.
4r	4c	6eeL
!	!	!LO:N:vis=16
.	.	12dd
!	!	!LO:N:vis=8.
4c	4g	6ee
!	!	!LO:N:vis=16
.	.	12ff#XJ
=126	=126	=126
!LO:N:vis=8.	!	!
6B-L	4d	4gg
!LO:N:vis=16	!	!
12G	.	.
!LO:N:vis=8.	!	!
6D	4r	4b-
!LO:N:vis=16	!	!
12GJ	.	.
!LO:N:vis=8.	!	!
6B-L	4r	4dd
!LO:N:vis=16	!	!
12d	.	.
!LO:N:vis=8.	!	!
6c	4d	4gg
!LO:N:vis=16	!	!
12B-J	.	.
=127	=127	=127
!	!	!LO:N:vis=8.
4f	4dd	6ddL
!	!	!LO:N:vis=16
.	.	12ff
!	!	!LO:N:vis=8.
4r	4d	6bb-
!	!	!LO:N:vis=16
.	.	12ffJ
!	!	!LO:N:vis=8.
4r	4B-	6ddL
!	!	!LO:N:vis=16
.	.	12cc
!	!	!LO:N:vis=8.
4B-	4f	6dd
!	!	!LO:N:vis=16
.	.	12eeJ
!!LO:LB:g=original
=128	=128	=128
!LO:N:vis=8.	!	!
6AL	4c	2ff
!LO:N:vis=16	!	!
12F	.	.
!LO:N:vis=8.	!	!
6C	4A	.
!LO:N:vis=16	!	!
12FJ	.	.
!LO:N:vis=8.	!	!
6AL	4c	4r
!	!	!
12c	.	.
!LO:N:vis=8.	!	!
6B-	4f	4dd
!	!	!
12AJ	.	.
=129	=129	=129
!	!	!LO:N:vis=8.
4e	4e	6cc#XL
!	!	!LO:N:vis=16
.	.	12ee
!	!	!LO:N:vis=8.
4r	4c#X	6aa
!	!	!LO:N:vis=16
.	.	12eeJ
!	!	!LO:N:vis=8.
4r	4e	6cc#L
!	!	!LO:N:vis=16
.	.	12bX
!	!	!LO:N:vis=8.
4A	4a	6cc#
!	!	!LO:N:vis=16
.	.	12ddJ
=130	=130	=130
*	*Xtuplet	*
!	!LO:N:vis=8.	!
4B-	6gL	4ee
!	!LO:N:vis=16	!
.	12e	.
!	!LO:N:vis=8.	!
4r	6c#X	4r
!	!	!
.	12xeJ	.
!LO:N:vis=8	!LO:N:vis=8.	!LO:N:vis=8
12.r	6gL	12.r
!LO:N:vis=16	!	!LO:N:vis=16
24r	.	24r
!LO:N:vis=16	!LO:N:vis=16	!LO:N:vis=16
12E	12b-	12gg
!LO:N:vis=8.	!LO:N:vis=8.	!LO:N:vis=8.
6FL	6a	6ffL
!LO:N:vis=16	!LO:N:vis=16	!LO:N:vis=16
12GJ	12gJ	12eeJ
=131	=131	=131
2C#X;	2ee;	2bb-;
4r	4r	4r
*brackettup	*	*
*tuplet	*	*
!LO:TUP:a	!	!
12r	4e	4gg
12C#L	.	.
12B-J	.	.
!!LO:LB:g=original
=132	=132	=132
*	*tuplet	*tuplet
[4A	12fL>	12ffL
.	12g	12ee
.	12aJ	12ddJ
!LO:TUP:a	!	!
12AL]	[4e	12cc#XL
12G	.	12ee
12F#XJ	.	12ddJ
[4G	12eL]	12ccL
.	12f#X	12dd
.	12gJ	12ccJ
!LO:TUP:a	!	!
12GL]	4d	12b-L
12A	.	12cc
12GJ	.	12b-J
=133	=133	=133
[4Fn	4a	12aL
.	.	12ff
.	.	12eeJ
!LO:TUP:a	!	!
12FL]	4r	12ddL
12E	.	12ee
12DJ	.	12ffJ
[4E	4r	12ggL
.	.	12ee
.	.	12ddJ
!LO:TUP:a	!	!
12EL]	4e	12cc#XL
12F	.	12dd
12EJ	.	12eeJ
=134	=134	=134
[1D	4A	12ffL
.	.	12aa
.	.	12ffJ
.	[4a	12ddL
.	.	12ff
.	.	12ddJ
!	!LO:TUP:a	!
.	12aL]	12aL
.	12g	12b-
.	12fJ	12ccJ
.	12gL	12b-L
.	12f	12a
.	12eJ	12gJ
=135	=135	=135
12DL]	12fL	[1a
12C#X	12e	.
12BBXJ	12dJ	.
!LO:TUP:a	!	!
12C#L	[4e	.
12E	.	.
12AJ	.	.
!LO:TUP:a	!	!
12GL	12eL]	.
12F	12d	.
12EJ	12c#XJ	.
!LO:TUP:a	!	!
12FL	12dL	.
12E	12c#	.
12DJ	12BXJ	.
!!LO:LB:g=original
=136	=136	=136
!LO:TUP:a	!	!
12EL	12c#XL	4a_
12F	12d	.
12GJ	12eJ	.
!LO:TUP:a	!	!
12F#XL	[4d	12aL>]
12G	.	12b-
12AJ	.	12ccJ
4G	12dL]	4b-/
.	12e	.
.	12fJ	.
4r	12eL	4r
.	12f	.
.	12gJ	.
=137	=137	=137
*	*Xtuplet	*
!	!LO:N:vis=8.	!LO:TUP:a
2r	6fL	12r
.	.	12aL
!	!LO:N:vis=16	!
.	12d	12ddJ
!	!LO:N:vis=8.	!LO:TUP:a
.	6A	12ffL
.	.	12dd
!	!LO:N:vis=16	!
.	12dJ	12ffJ
!	!LO:N:vis=8.	!LO:TUP:a
4r	6fL	12aaL
.	.	12ff
!	!LO:N:vis=16	!
.	12g	12ddJ
!	!LO:N:vis=8.	!LO:TUP:a
4A	6f	12aL
.	.	12b-
!	!LO:N:vis=16	!
.	12eJ	12ccJ
=138	=138	=138
!	!	!LO:TUP:a
4d	[1d	12b-L
.	.	12dd
.	.	12ggJ
!	!	!LO:TUP:a
[4D	.	12bb-L
.	.	12aa
.	.	12ggJ
!LO:TUP:a	!	!LO:TUP:a
12DL]	.	12ff#XL
12E	.	12gg
12F#XJ	.	12aaJ
*	*	*Xtuplet
!LO:TUP:a	!	!LO:N:vis=8.
12EL	.	6ggL
12F#	.	.
!	!	!LO:N:vis=16
12GJ	.	12b-J
=139	=139	=139
!LO:TUP:a	!	!
12F#XL	1d_	[4a
12G	.	.
12AJ	.	.
*	*	*tuplet
!	!	!LO:TUP:a
[4G	.	12aL>]
.	.	12b-
.	.	12ccJ
!LO:TUP:a	!	!LO:TUP:a
12GL]	.	12b-L
12A	.	12a
12B-J	.	12gJ
!LO:TUP:a	!	!LO:TUP:a
12AL	.	12f#XL
12B-	.	12g
12cJ	.	12aJ
!!LO:LB:g=original
=140	=140	=140
*	*	*Xtuplet
!LO:TUP:a	!	!LO:N:vis=8.
12B-L	4d]	6gL
12A	.	.
!	!	!LO:N:vis=16
12GJ	.	12eeJ
*	*	*tuplet
!	!	!LO:TUP:a
[4A	4c#X	12ffL
.	.	12gg
.	.	12aaJ
!LO:TUP:a	!	!
12AL]	4e	2cc#Xt
12G	.	.
12FJ	.	.
!LO:TUP:a	!	!
12GL	4g	.
12F	.	.
12EJ	.	.
=141	=141	=141
*Xtuplet	*tuplet	*Xtuplet
!LO:N:vis=8.	!LO:TUP:a	!
6FL	12aL	4dd
.	12dd	.
!LO:N:vis=16	!	!
12A	12aJ	.
!LO:N:vis=8.	!LO:TUP:a	!
6d	12fL>	4r
.	12a	.
!LO:N:vis=16	!	!
12AJ	12fJ	.
!LO:N:vis=8.	!	!LO:N:vis=8
6FL	4d	12.r
!	!	!LO:N:vis=16
.	.	24r
!LO:N:vis=16	!	!LO:N:vis=16
12E	.	12cc#X
!LO:N:vis=8.	!	!LO:N:vis=8.
6F#X	4dd	6ddL
!LO:N:vis=16	!	!LO:N:vis=16
12GJ	.	12eeJ
=142	=142	=142
*tuplet	*	*tuplet
!LO:TUP:a	!	!LO:TUP:a
12AL	[4a	12ff#XL
12B-	.	12gg
12cJ	.	12aaJ
[4B-	12aL]	2dd
.	12f#X	.
.	12eJ	.
!LO:TUP:a	!	!
12B-L]	12dL	.
12c	12c	.
12dJ	12B-J	.
*	*Xtuplet	*
!LO:TUP:a	!LO:N:vis=8.	!LO:TUP:a
12c#XL	6AL	12eeL
12BX	.	12dd
!	!LO:N:vis=16	!
12AJ	12aJ	12cc#XJ
=143	=143	=143
2.d;	2.a;	2.ff#X;
==	==	==
*-	*-	*-
!!!RDF**kern: > = above
!!!RDF**kern: < = below
!!!system-decoration: [(s1,s2,s3,s4)]
!!!URL-pdf: https://vmirror.imslp.org/files/imglnks/usimg/8/88/IMSLP504269-PMLP05843-BGA-25.1.pdf#page=61 @{SMS1}
!!!URL-pdf: https://s9.imslp.org/files/imglnks/usimg/1/1d/IMSLP469177-PMLP5843-Bach,_J.S._-_The_Art_of_the_Fugue.pdf#page=83 @{SMS2}
!!!URL-youtube: https://www.youtube.com/watch?v=OMtjlaDEMdI&t=3155s Netherlands Bach Society/Malinowski
!!!URL-youtube: https://www.youtube.com/watch?v=N6sUlZa-IrU&t=3155s Netherlands Bach Society
!!!URL-youtube: https://www.youtube.com/watch?v=3fSKHuQr7Rk&t=0s Ma/Thile/Meyer (2017)
!!!SMS: @{SMS1}
!!!SMS: Bach-Gesellschaft Ausgabe, Band 25.1 Leipzig: Breitkopf und Härtel, 1878. Plate B.W. XXV (1).
!!!SMS2: Bach-Gesellschaft Ausgabe, Band 47 Leipzig: Breitkopf und Härtel, 1926. Plate B.W. XLVII.
!!!PED: Wilhelm Rust
!!!PED-ODT: 1822-1892
!!!ONB: Die Kunst der Fuge nach dem Berliner Autograph in Anordnung und Lesarten
!!!ENC: Craig Stuart Sapp
!!!END: 2024/03/24
!!!EED: Craig Stuart Sapp
!!!EEV: 2024/03/28
!!!title: @{OPR} (@{SCA}), @{OTL}
!!!filter-modern: modori -m | autostem -r
